**kern	**text
*clefG2	*
*k[f#c#]	*
*M4/4	*
*MM210	*
=1	=1
1r	.
=2	=2
1r	.
=3	=3
1r	.
=4	=4
1r	.
=5	=5
1r	.
=6	=6
1r	.
=7	=7
1r	.
=8	=8
1r	.
=9	=9
1r	.
=10	=10
1r	.
=11	=11
1r	.
=12	=12
1r	.
=13	=13
1r	.
=14	=14
1r	.
=15	=15
1r	.
=16	=16
1r	.
=17	=17
4r	.
8r	.
[8g	ど
8g]	.
4f#	だ
8e	て
=18	=18
4d	い
8dL	こ
8eJ	と
4d'	お
4r	.
=19	=19
8B	う
4d	そ
8B	て
[8dL	は
32dKL]	.
16.dJJ	い
4B	て
=20	=20
4d	も
8dL	ど
8eJ	れ
[8dL	な
32dKL]	.
16.dJJ	い
4r	.
=21	=21
4r	.
8dL	じ
[8gJ	こ
8gL]	.
[8f#J	な
16f#LL]	.
16f#J	ん
8eJ	て
=22	=22
4d	や
8dL	て
8eJ	こ
[8dL	な
32dKL]	.
16.dJJ	い
4r	.
=23	=23
8d	う
4a	ば
8g	た
4a	よ
4b	に
=24	=24
8bL	う
8a	ば
8g	わ
8f#J	れ
[8gL	て
32gKL]	.
16.gJJ	e R
4r	.
=25	=25
4r	.
8r	.
[8g	きょ
8g]	.
4f#	だ
8e	て
=26	=26
4d	か
8dL	ま
8eJ	わ
8.dL	な
16dJk	い
4r	.
*clefF4	*
=27	=27
8B	お
4d	も
8B	た
4d	よ
4B'	に
*clefG2	*
=28	=28
4d	だ
8dL	ま
8eJ	せ
8.dL	な
16dJk	い
4r	.
=29	=29
4r	.
8dL	く
[8gJ	さ
8gL]	.
[8f#J	て
16f#LL]	.
16f#J	い
8eJ	る
=30	=30
4d	ぼ
8dL	く
8eJ	に
4d'	わ
4r	.
=31	=31
8d	く
4a	さ
8g	た
8aL	も
8aJ	の
4b	が
=32	=32
8bL	わ
8a	か
8g	ら
8f#J	な
4g'	い
8r	.
[8d	お
=33	=33
32dKLL]	.
16.dJJ	い
[4.g	で
2g_	.
=34	=34
4.g]	.
[8f#	こ
8f#]	.
4g	こ
[8f#	ま
=35	=35
8f#]	.
[4.e	で
2e_	.
=36	=36
1e]	.
=37	=37
16r	.
32r	.
32e	す
[4.b	て
2b_	.
=38	=38
4.b]	.
[8a	え
8a]	.
4b	え
[8a	え
=39	=39
8a]	.
[4.g#X	え
2g#_	.
=40	=40
2.g#]	.
4g#X'	i R
=41	=41
1r	.
=42	=42
1r	.
=43	=43
8r	.
4cc#	め
[8cc#	で
8cc#L]	.
8cc#	ぼ
8b	く
8aJ	と
=44	=44
8a	わ
4ee	か
8b	て
4.cc#	も
[8cc#	も
=45	=45
8cc#L]	.
8b	だ
8a	き
8bJ	し
8aL	め
[8bJ	な
16bLL]	.
16bJ	く
[8cc#J	て
=46	=46
8cc#L]	.
8b	い
8b	ん
8aJ	だ
4a	よ
8r	.
[8b	へ
=47	=47
16bLL]	.
16bJJ	い
4cc#	め
[8cc#	で
8cc#L]	.
8cc#	ぼ
8b	く
8aJ	が
=48	=48
8a	わ
4ee	か
8b	た
4.cc#	ら
[8cc#	も
=49	=49
8cc#L]	.
8b	い
8a	ち
8bJ	ど
8a	わ
4b	ら
8cc#	て
=50	=50
8cc#L	く
[8bJ	れ
16bLL]	.
16bJ	る
8aJ	か
4a	な
4r	.
=51	=51
1r	.
=52	=52
1r	.
=53	=53
8r	.
8bL	ま
8a	ぼ
8bJ	ろ
8a	し
4b	だ
8cc#	て
=54	=54
8cc#L	し
[8bJ	る
32bKLL]	.
16.bJ	ん
8cc#J	だ
[2cc#	よ
=55	=55
1cc#_	.
=56	=56
2cc#]	.
2r	.
=57	=57
8r	.
8bL	う
8a	そ
8bJ	つ
8a	き
4b	だ
8cc#	て
=58	=58
8cc#L	し
8b	る
8a	ん
8aJ	だ
4a	よ
8r	.
[8cc#	ね
=59	=59
8cc#]	.
8r	.
4r	.
2r	.
=60	=60
1r	.
=61	=61
1r	.
=62	=62
1r	.
=63	=63
1r	.
=64	=64
1r	.
=65	=65
1r	.
=66	=66
1r	.
=67	=67
4r	.
8r	.
[8g	の
8g]	.
4f#	だ
8e	て
=68	=68
4d	ゆ
8dL	は
8eJ	ず
4d'	が
4r	.
=69	=69
8B	きょ
4d	ど
8B	て
[8.dL	いぇ
32dLL]	.
32dJJJ	す
4B	を
=70	=70
[8dL	こ
32dKL]	.
16.dJJ	え
8dL	に
8eJ	だ
4d'	す
4r	.
=71	=71
4r	.
8r	.
[8g	こ
8gL]	.
[8f#J	か
16f#LL]	.
16f#J	い
8eJ	の
=72	=72
8dL	ぜ
8d	い
8d	じゃ
8eJ	く
4d'	わ
4r	.
=73	=73
8dL	だ
[8aJ	ま
16aLL]	.
16aJ	し
8gJ	た
4a	ほ
4b	が
=74	=74
8bL	せ
8a	い
8g	ぎ
8f#J	な
4g'	の
4r	.
=75	=75
4r	.
8dL	ひ
[8gJ	きょ
8g]	.
4f#	だ
8e	て
=76	=76
4d	か
8dL	ま
8eJ	わ
8.dL	な
16dJk	い
4r	.
=77	=77
8B	い
4d	の
8B	て
[8dL	お
32dKL]	.
16.dJJ	い
4B'	て
=78	=78
4d	そ
8dL	れ
8eJ	わ
[8dL	な
32dKL]	.
16.dJJ	い
4r	.
=79	=79
4r	.
8dL	か
[8gJ	ざ
8gL]	.
[8f#J	て
16f#LL]	.
16f#J	い
8eJ	た
=80	=80
4d	じょ
8dL	ぜ
8eJ	つ
4d'	が
4r	.
=81	=81
8dL	ぼ
[8aJ	け
16.aLL]	.
32aJK	つ
8gJ	お
4a	ほ
4b	て
=82	=82
8bL	や
8a	け
8g	る
8f#J	さ
4g'	ま
8r	.
[8d	お
=83	=83
16dLL]	.
16dJJ	い
[4.g	め
2g_	.
=84	=84
4.g]	.
[8f#	ど
8f#]	.
4g	こ
[8f#	ま
=85	=85
8f#]	.
[4.e	で
2e_	.
=86	=86
1e]	.
=87	=87
16r	.
32r	.
32e	ぐ
[4.b	れ
2b_	.
=88	=88
4.b]	.
[8a	え
8a]	.
4b	え
[8a	え
=89	=89
8a]	.
[4.g#X	え
2g#_	.
=90	=90
2.g#]	.
4g#X'	i R
=91	=91
1r	.
=92	=92
1r	.
=93	=93
8r	.
4cc#	め
[8cc#	で
8cc#L]	.
8cc#	ぼ
8b	く
8aJ	お
=94	=94
8a	し
4ee	か
8b	て
4.cc#	よ
[8cc#	しょ
=95	=95
8cc#L]	.
8b	じ
8a	き
8bJ	も
8aL	の
8b	が
8b	ゆ
8cc#J	め
=96	=96
8cc#L	み
[8bJ	た
16bLL]	.
16bJ	い
8aJ	な
4a	ら
8r	.
[8b	へ
=97	=97
16bLL]	.
16bJJ	い
4cc#	め
[8cc#	で
8cc#L]	.
8cc#	ぼ
8b	く
8aJ	お
=98	=98
8aL	さ
8ee	ば
8b	い
8bJ	て
4.cc#	よ
[8cc#	さ
=99	=99
16cc#LL]	.
16cc#J	い
8bJ	ご
8aL	ま
8bJ	で
8aL	あ
8b	ま
8b	え
[8cc#J	て
=100	=100
16.cc#LL]	.
32cc#JK	し
[8bJ	ま
16bLL]	.
16bJ	う
8aJ	の
4a	わ
4r	.
=101	=101
1r	.
=102	=102
1r	.
=103	=103
8r	.
8bL	ぼ
8a	う
8bJ	れ
8a	い
4b	だ
8cc#	て
=104	=104
8cc#L	し
[8bJ	る
32bKLL]	.
16.bJ	ん
8cc#J	だ
[2cc#	よ
=105	=105
1cc#_	.
=106	=106
2cc#]	.
2r	.
=107	=107
8r	.
8bL	く
8a	う
8bJ	は
8a	く
4b	だ
8cc#	て
=108	=108
8cc#L	し
[8bJ	る
16bLL]	.
16bJ	ん
8aJ	だ
4a	よ
8r	.
[8cc#	ね
=109	=109
8cc#]	.
8r	.
4r	.
2r	.
=110	=110
1r	.
=111	=111
1r	.
=112	=112
1r	.
=113	=113
1r	.
=114	=114
1r	.
=115	=115
1r	.
=116	=116
1r	.
=117	=117
8r	.
8c#L	た
8c#	り
8c#J	な
8c#L	い
8c#	も
8c#	の
8c#J	を
*clefF4	*
=118	=118
8c#L	の
8d	ぞ
8A	ん
8AJ	だ
4A'	ら
4r	.
=119	=119
8AL	ぼ
8B	く
8A	じゃ
8BJ	な
8AL	い
8B	ぼ
8A	く
8BJ	に
=120	=120
8AL	で
8BJ	あ
8r	.
*clefG2	*
8c#	た
4c#	よ
4r	.
=121	=121
8r	.
8c#L	そ
8c#	れ
8c#J	で
8c#L	も
8c#	ま
8c#	え
8c#J	に
*clefF4	*
=122	=122
8c#L	す
8d	す
8A	ん
8AJ	だ
4A'	の
4r	.
=123	=123
8c#L	く
8BJ	ら
8r	.
8c#	く
4B'	ら
8BL	し
*clefG2	*
8c#J	ちゃ
=124	=124
8d	う
4.e	よ
8dL	る
8c#J	も
4r	.
=125	=125
8r	.
8c#L	た
8c#	り
8c#J	な
8c#L	い
8c#	ぼ
8c#	く
8c#J	お
*clefF4	*
=126	=126
8c#L	あ
8d	い
8A	し
8AJ	て
4A'	よ
4r	.
=127	=127
8AL	え
8B	ご
8A	ま
8BJ	ま
8AL	が
8B	ぼ
8A	く
8BJ	お
=128	=128
8AL	そ
8B	だ
8B	て
*clefG2	*
8c#J	た
4c#	の
4r	.
=129	=129
8r	.
8c#L	き
8c#	み
8c#J	に
8c#L	わ
8c#	ぼ
8c#	く
8c#J	が
*clefF4	*
=130	=130
8c#L	み
8d	え
8A	る
8AJ	か
4A'	な
4r	.
=131	=131
8c#L	こ
8BJ	ど
8r	.
8c#	く
4B'	な
8c#L	ぴ
8BJ	え
=132	=132
8A	ろ
4.A	が
2r	.
=133	=133
8r	.
*clefG2	*
4cc#	め
[8cc#	で
8cc#L]	.
8cc#	ぼ
8b	く
8aJ	と
=134	=134
8a	わ
4ee	か
8b	て
4.cc#	も
[8cc#	も
=135	=135
8cc#L]	.
8b	だ
8a	き
8bJ	し
8aL	め
[8bJ	な
16bLL]	.
16bJ	く
[8cc#J	て
=136	=136
8cc#L]	.
8b	い
8b	ん
8aJ	だ
4a	よ
8r	.
[8b	へ
=137	=137
16bLL]	.
16bJJ	い
4cc#	め
[8cc#	で
8cc#L]	.
8cc#	ぼ
8b	く
8aJ	が
=138	=138
8a	わ
4ee	か
8b	た
4.cc#	ら
[8cc#	も
=139	=139
8cc#L]	.
8b	い
8a	ち
8bJ	ど
8a	わ
4b	ら
8cc#	て
=140	=140
8cc#L	く
[8bJ	れ
16bLL]	.
16bJ	る
8aJ	か
4a	な
4r	.
=141	=141
8r	.
4cc#	め
[8cc#	で
8cc#L]	.
8cc#	ぼ
8b	く
8aJ	お
=142	=142
8a	し
4ee	か
8b	て
4.cc#	よ
[8cc#	しょ
=143	=143
8cc#L]	.
8b	じ
8a	き
8bJ	も
8aL	の
8b	が
8b	ゆ
8cc#J	め
=144	=144
8cc#L	み
[8bJ	た
16bLL]	.
16bJ	い
8aJ	な
4a	ら
8r	.
[8b	へ
=145	=145
16bLL]	.
16bJJ	い
4cc#	め
[8cc#	で
8cc#L]	.
8cc#	ぼ
8b	く
8aJ	お
=146	=146
8aL	さ
8ee	ば
8b	い
8bJ	て
4.cc#	よ
[8cc#	さ
=147	=147
16cc#LL]	.
16cc#J	い
8bJ	ご
8aL	ま
8bJ	で
8aL	あ
8b	ま
8b	え
[8cc#J	て
=148	=148
16.cc#LL]	.
32cc#JK	し
[8bJ	ま
16bLL]	.
16bJ	う
8aJ	の
4a	わ
4r	.
=149	=149
8r	.
4dd	め
[8dd	で
8ddL]	.
8dd	ぼ
8ccn	く
8a#XJ	お
=150	=150
8a#XL	あ
8ffn	ば
8ccn	い
8ccJ	て
4.dd	よ
[8dd	も
=151	=151
8ddL]	.
8ccn	じ
8a#X	き
8ccJ	お
8a#L	わ
8cc	る
8cc	こ
8ddJ	の
=152	=152
8ddL	せ
8ccn	か
8a#X	い
8a#J	か
4a#	ら
8r	.
[8cc#X	へ
=153	=153
16cc#LL]	.
16cc#JJ	い
4dd#X	め
[8dd#	で
8dd#L]	.
8dd#	ぼ
8cc#	く
8bJ	と
=154	=154
8b	お
4ff#	ど
8cc#	て
4.dd#X	よ
[8dd#	さ
=155	=155
16dd#LL]	.
16dd#XJ	い
8cc#J	しょ
8bL	か
8cc#J	ら
8bL	い
8cc#	な
8cc#	い
8dd#J	と
=156	=156
8dd#X	わ
4cc#	か
8b	て
4.b	た
[8cc#	あ
=157	=157
8cc#]	.
[4.dd#X	あ
2dd#_	.
=158	=158
1dd#]	.
=159	=159
8r	.
8cc#L	ま
8b	ぼ
8cc#J	ろ
8b	し
4cc#	だ
8dd#X	て
=160	=160
8dd#XL	し
[8cc#J	る
32cc#KLL]	.
16.cc#J	ん
8dd#J	だ
[2dd#	よ
=161	=161
1dd#_	.
=162	=162
2dd#]	.
2r	.
=163	=163
8r	.
8cc#L	う
8b	そ
8cc#J	つ
8b	き
4cc#	だ
8dd#X	て
=164	=164
8dd#XL	し
8cc#	る
8b	ん
8bJ	だ
4b	よ
8r	.
8ff#	ね
=165	=165
4dd#X	え
8cc#L	え
[8bJ	え
2b]	.
=166	=166
1r	.
=167	=167
8r	.
8cc#L	ぼ
8b	う
8cc#J	れ
8b	い
4cc#	だ
8dd#X	て
=168	=168
8dd#XL	し
[8cc#J	る
32cc#KLL]	.
16.cc#J	ん
8dd#J	だ
[2dd#	よ
=169	=169
1dd#_	.
=170	=170
2dd#]	.
2r	.
=171	=171
8r	.
8cc#L	く
8b	う
8cc#J	は
8b	く
4cc#	だ
8dd#X	て
=172	=172
8dd#XL	し
[8cc#J	る
16cc#LL]	.
16cc#J	ん
8bJ	だ
4b	よ
4r	.
=173	=173
4r	.
8r	.
[8g	ど
8g]	.
4f#	だ
8e	て
=174	=174
4d	い
8dL	こ
8eJ	と
4d'	お
4r	.
=175	=175
8B	う
4d	そ
8B	て
[8dL	は
32dKL]	.
16.dJJ	い
4B	て
=176	=176
4d	も
8dL	ど
8eJ	れ
[8dL	な
32dKL]	.
16.dJJ	い
4r	.
=177	=177
4r	.
8dL	じ
[8gJ	こ
8gL]	.
[8f#J	な
16f#LL]	.
16f#J	ん
8eJ	て
=178	=178
4d	や
8dL	て
8eJ	こ
[8dL	な
32dKL]	.
16.dJJ	い
4r	.
=179	=179
8d	う
4a	ば
8g	た
4a	よ
4b	に
=180	=180
8bL	う
8a	ば
8g	わ
8f#J	れ
[8gL	て
32gKL]	.
16.gJJ	e R
4r	.
==	==
*-	*-
